!!!!SEGMENT: pl-kk--kk-i-389--010-008_anonim--missa-no-10-dona.krn
!!!cenid: 17xx:2529
!!!COM: Anonim
!!!COM-rismID: pe30004985
!!!CDT:
!!!CNT:
!!!OPR: [Missa] No. 10.
!!!OTL: Dona
!!!OMV: 008
!!!PDT:
!!!AGN: Sacred; Mass
!!!YEC: Copyright 2022 Narodowy Instytut Fryderyka Chopina (https://polishscores.org)
!!!YEM: License CC-BY-4.0 (https://creativecommons.org/licenses/by/4.0)
!!!SMS-siglum: PL-Kk
!!!SMS-shelfmark: Kk.I.389
!!!SMS-variant:
!!!SMS-altvar:
!!!SMS-shelfwork: 010-008 M
!!!NIFC-rismSourceID: 1001146182
!!!NIFC-rismChildID: 1001147254
!!!NIFC-islandoraID: pl-kk:6976
!!!URL-pdf-islandora: https://repozytorium.nifc.pl/islandora/object/pl-kk%3A6976/datastream/PDF/view
!!!URL-scan: https://polish.musicsources.pl/pl/lokalizacje/galeria/rekopisy/5999/1 @EN{Scan on Polish Music Sources Website} @PL{Skany w portalu Dziedzictwo Muzyki Polskiej w otwartym dostępie}
!!!IIIF:
!!!ONB-nifc: UWAGA: S – skan 17-18, A – 36-37, T – 55-56, B – 74-75. Części Mszy: Rorate, Kyrie, Gloria, Graduale, Sanctus, Benedictus, Agnus, Dona. Uwaga: Jeśli w części głosów Dona jest rozpisane a w pozostałych jest adnotacja „ut Kyrie”, wszystkie głosy należy rozpisać z podłożonym tekstem Dona (do ukrycia w humdrumie).
!!!AIN: 1 alto 1 bass 1 soprn 1 tenor
!!!key:
**kern	**text	**kern	**text	**kern	**text	**kern	**text
*part4	*part4	*part3	*part3	*part2	*part2	*part1	*part1
*staff4	*staff4	*staff3	*staff3	*staff2	*staff2	*staff1	*staff1
*I"Basso.	*	*I"Tenore.	*	*I"Alto	*	*I"Soprano.	*
*I'B	*	*I'T	*	*I'A	*	*I'S	*
*ICvox	*	*ICvox	*	*ICvox	*	*ICvox	*
*Ibass	*	*Itenor	*	*Ialto	*	*Isoprn	*
*clefF4	*	*clefC4	*	*clefC3	*	*clefC1	*
*k[b-]	*	*k[b-]	*	*k[b-]	*	*k[b-]	*
*F:	*	*F:	*	*F:	*	*F:	*
*M2/2	*	*M2/2	*	*M2/2	*	*M2/2	*
*met(C.)	*	*met(C.)	*	*met(C.)	*	*met(C.)	*
=1	=1	=1	=1	=1	=1	=1	=1
*	*	*	*	*	*	*all\right:global	*
*2\right	*	*	*	*2\right	*	*2\right	*
2F\	Do-	4r	.	2.a\	Do-	2.cc\	Do-
.	.	8f\	Do-	.	.	.	.
.	.	8f\	-na	.	.	.	.
2F\	-na	4f\	no-	.	.	.	.
.	.	4f\	-bis	4a\	-na	4ff\	-na
=2	=2	=2	=2	=2	=2	=2	=2
*	*	*2\right	*	*	*	*	*
2.F\	no-	2f\	pa-	2.a\	no-	2.cc\	no-
.	.	4f\	-cem	.	.	.	.
4F\	-bis	4f\	da	4a\	-bis	4ff\	-bis
=3	=3	=3	=3	=3	=3	=3	=3
4.F\	Do-	2f\	pa-	4.a\	pa-	4.cc\	do-
8F\	-na	.	.	8b-\	.	8dd\	-na
4F\	no-	4f\	-cem	4a\	-cem	4cc\	no-
4F\	-bis	4r	.	4a\	da	4ff\	-bis,
!	!	!	!	!	!	!LO:LB:g=original	!
=4	=4	=4	=4	=4	=4	=4	=4
!	!	!LO:TX:a:t=3.	!	!	!	!	!
4G\	do-	0r	.	4b-\	pa-	8ff\	pa-
.	.	.	.	.	.	4ee\	.
4F\	.	.	.	4a\	.	.	.
.	.	.	.	.	.	4dd\	.
4E\	.	.	.	4g\	.	.	.
.	.	.	.	.	.	4cc\	.
4C/	-na	.	.	4e\	.	.	.
.	.	.	.	.	.	8b-\	.
=5	=5	=5-	=5	=5	=5	=5	=5
4F\	pa-	.	.	4f\	.	4a\	.
4F\	-cem	.	.	4a\	-cem	4cc\	-cem.
2r	.	.	.	2r	.	2r	.
!LO:PB:g=original	!	!	!	!	!	!	!
=6	=6	=6-	=6	=6	=6	=6	=6
2F\	Do-	1r	.	2a\	do-	2cc\	Do-
!	!	!	!	!LO:LB:g=original	!	!	!
2F\	-na	.	.	8b-\L	.	8dd\L	.
.	.	.	.	8a\J	.	8cc\J	.
.	.	.	.	8g\L	-na	8b-\L	-na
.	.	.	.	8f\J	.	8a\J	.
=7	=7	=7	=7	=7	=7	=7	=7
2C/	no-	8c\L	do-	4e\	no-	4g\	no-
.	.	8B-\J	.	.	.	.	.
.	.	8A\L	-na	4f\	.	4a\	.
.	.	8G\J	.	.	.	.	.
.	.	.	.	8qa/	.	8qcc/	.
2C/	-bis	4c\	no-	4g\	.	4b-\	.
.	.	4B-\	-bis	8f\L	-bis	8a\L	-bis
.	.	.	.	8e\J	.	8g\J	.
!	!	!LO:LB:g=original	!	!	!	!	!
=8	=8	=8	=8	=8	=8	=8	=8
4F\	pa-	4A\	pa-	4f\	pa-	4f/	pa-
4F\	-cem	4A\	-cem	4f\	-cem	4f/	-cem
2r	.	2r	.	4r	.	4r	.
.	.	.	.	4a\	do-	4cc\	do-
=9	=9	=9	=9	=9	=9	=9	=9
!LO:TX:a:t=1	!	!	!	!	!	!	!
1r	.	1r	.	4.a\	.	4.ff\	.
.	.	.	.	8a\	-na	8ff\	-na
!	!	!	!	!	!	!LO:LB:g=original	!
.	.	.	.	4a\	no-	4ff\	no-
.	.	.	.	4cc\	-bis	4ee\	-bis
=10	=10	=10	=10	=10	=10	=10	=10
.	.	.	.	8qcc/	.	8qqee/	.
2r	.	2r	.	2b-\	.	2dd\	.
4r	.	4r	.	4a\	-cem,	4cc\	-cem
4F\	do-	4A\	do-	4r	.	4r	.
=11	=11	=11	=11	=11	=11	=11	=11
!	!	!LO:SIC:o=4.c\	!	!LO:TX:a:t=1.	!	!LO:TX:a:t=1.	!
4.B-\	.	4.d	.	1r	.	1r	.
!	!	!LO:SIC:o=8c\	!	!	!	!	!
8B-\	-na	8d	-na	.	.	.	.
!	!	!LO:SIC:o=4c\	!	!	!	!	!
4B-\	no-	4d	no-	.	.	.	.
!	!	!LO:SIC:o=4B-\	!	!	!	!	!
4A\	-bis	4c	-bis	.	.	.	.
!	!	!	!	!LO:LB:g=original	!	!	!
=12	=12	=12	=12	=12	=12	=12	=12
8qA/	.	8qc/	.	.	.	.	.
2G\	.	2B-\	.	2r	.	2r	.
4F\	-cem	4A\	-cem	4r	.	4r	.
8F\L	da	4f\	da	4a\	do-	4cc\	do-
8A\J	.	.	.	.	.	.	.
!LO:LB:g=original	!	!	!	!	!	!	!
=13	=13	=13	=13	=13	=13	=13	=13
2c\	pa-	2e\	pa-	2g\	.	1cc	-na
4A\	.	2f\	.	2a\	-na	.	.
4F\	.	.	.	.	.	.	.
=14	=14	=14	=14	=14	=14	=14	=14
4C/	-cem	4e\	-cem.	4g\	do-	4cc\	Do-
4r	.	4r	.	8e\L	-na	8g\L	-na
.	.	.	.	8g\J	.	8b-\J	.
2r	.	2r	.	8g\L	no-	8b-\L	no-
.	.	.	.	8f\J	.	8a\J	.
.	.	.	.	8f\L	-bis	8a\L	-bis
.	.	.	.	8e\J	.	8g\J	.
!	!	!LO:LB:g=original	!	!	!	!	!
=15	=15	=15	=15	=15	=15	=15	=15
4r	.	4r	.	4e\	do-	4.g\	Do-
4C/	da	8c\	do-	4e\	-na	.	.
.	.	8c\	-na	.	.	8g\	-na
4E/	no-	4c\	no-	4g\	no-	4.cc\	no-
4C/	-bis	4c\	-bis	4e\	-bis	.	.
.	.	.	.	.	.	8b-\	-bis
!	!	!	!	!	!	!LO:LB:g=original	!
=16	=16	=16	=16	=16	=16	=16	=16
4F\	pa-	4c\	pa-	4f\	pa-	4a\	pa-
4F\	-cem	4A\	.	4a\	.	4cc\	.
4F\	pa-	2A\	.	4a\	-cem	4cc\	-cem
4E-X\	.	.	.	4g\	.	4cc\	da
=17	=17	=17	=17	=17	=17	=17	=17
4D\	-cem	4A\	-cem	4f#X\	do-	4dd\	no-
4r	.	4r	.	8f#\L	.	8a\L	.
.	.	.	.	8a\J	-na	8cc\J	.
!	!	!	!	!LO:LB:g=original	!	!	!
2r	.	2r	.	8a\L	no-	8cc\L	.
.	.	.	.	8g\J	.	8b-\J	.
.	.	.	.	8g\L	-bis	8b-\L	-bis
.	.	.	.	8f#X\J	.	8a\J	.
=18	=18	=18	=18	=18	=18	=18	=18
4r	.	4r	.	4f#X\	do-	4a\	pa-
4D\	da	4d\	da	4f#\	-na	4a\	-cem
4F#X\	pa-	2d\	pa-	4a\	no-	4.dd\	Do-
4D\	.	.	.	4f#\	-bis	.	.
.	.	.	.	.	.	8cc\	-na
=19	=19	=19	=19	=19	=19	=19	=19
4G\	-cem	4d\	-cem	4g\	do-	4b-\	no-
4r	.	4r	.	4g\	-na	4b-\	-bis
!LO:TX:t=P:problem:skreślone 5 taktów	!	!	!	!	!	!	!
2r	.	2r	.	4g\	pa-	4b-\	do-
.	.	.	.	8b-\L	.	8dd\L	-na
.	.	.	.	8g\J	.	8b-\J	.
!LO:LB:g=original	!	!	!	!	!	!	!
=20	=20	=20	=20	=20	=20	=20	=20
4r	.	4r	.	4e\	-cem	4g\	do-
4C/	do-	4c\	da	4e\	do-	4cc\	-na
4D\	.	4.B-\	no-	4fn\	.	4cc\	no-
4E/	-na	.	.	4g\	-na	4cc\	-bis
.	.	8B-\	-bis	.	.	.	.
!LO:LB:g=original	!	!LO:LB:g=original	!	!	!	!LO:LB:g=original	!
=21	=21	=21	=21	=21	=21	=21	=21
4F\	no-	4A\	do-	4a\	no-	4cc\	do-
4F\	-bis	4A\	-na	4a\	-bis	4ff\	-na
4G\	pa-	4B-\	no-	4g\	pa-	4ff\	no-
4A\	.	4c\	-bis	4f\	.	4ff\	-bis
=22	=22	=22	=22	=22	=22	=22	=22
4B-\	-cem	4d\	do-	4b-\	-cem	4ff\	do-
4r	.	8d\L	-na	4r	.	8ff\L	.
.	.	8c#X\J	.	.	.	8ee\J	.
2r	.	4d\	pa-	2r	.	4ff\	.
.	.	4B-\	.	.	.	4dd\	-na
!	!	!	!	!LO:LB:g=original	!	!	!
=23	=23	=23	=23	=23	=23	=23	=23
2r	.	4A\	-cem	4r	.	4cc\	no-
.	.	4r	.	8a\L	da	8cc\L	.
.	.	.	.	8g#X\J	.	8bn\J	.
4r	.	4r	.	4a\	no-	4cc\	.
8F\L	da	4cn\	da	4f\	-bis	4a\	-bis,
8A\J	.	.	.	.	.	.	.
=24	=24	=24	=24	=24	=24	=24	=24
2c\	pa-	2.c\	pa-	2f\	pa-	2a\	pa-
2C/	.	.	.	2e\	.	2g\	.
.	.	4B-\	.	.	.	.	.
=25	=25	=25	=25	=25	=25	=25	=25
4F\	-cem	4A\	-cem	2f\	-cem	2f/	-cem
4A\	do-	4c\	do-	.	.	.	.
4G\	.	4B-\	.	4r	.	4r	.
4F\	-na	4A\	-na	4a\	da	4cc\	do-
=26	=26	=26	=26	=26	=26	=26	=26
4r	.	4r	.	4g\	no-	4ee\	.
4A\	no-	4c\	no-	4f\	-bis	4ff\	-na,
4G\	.	4B-\	.	4r	.	4r	.
4F\	-bis	4A\	-bis	4a\	pa-	4cc\	no-
!	!	!LO:LB:g=original	!	!	!	!LO:LB:g=original	!
=27	=27	=27	=27	=27	=27	=27	=27
4r	.	4r	.	4g\	.	4ee\	.
4A\	pa-	4c\	da	4f\	-cem	4ff\	-bis
!LO:LB:g=original	!	!	!	!	!	!	!
4G\	-cem	4B-\	no-	4r	.	4r	.
8F\L	da	8A\L	.	8f\L	do-	8cc\	do-
8A\J	.	8c\J	-bis	8a\J	-na	8ff\	-na
=28	=28	=28	=28	=28	=28	=28	=28
2c\	pa-	2c\	pa-	2a\	pa-	2ff\	pa-
2C/	.	2c\	-cem	2g\	.	2ee\	.
=29	=29	=29	=29	=29	=29	=29	=29
4F\	-cem	4c\	do-	2a\	-cem	2ff\	-cem
4A\	do-	4c\	-na	.	.	.	.
!	!	!	!	!LO:LB:g=original	!	!	!
4G\	.	4B-\	no-	4r	.	4r	.
4F\	-na	4A\	-bis	4a\	da	4cc\	do-
=30	=30	=30	=30	=30	=30	=30	=30
4r	.	4r	.	4g\	no-	4ee\	.
4A\	no-	4c\	pa-	4f\	-bis	4ff\	-na
4G\	.	4B-\	.	4r	.	4r	.
4F\	-bis	4A\	-cem	4a\	da	4cc\	no-
=31	=31	=31	=31	=31	=31	=31	=31
4r	.	4r	.	4g\	pa-	4ee\	.
4A\	pa-	4c\	da	4f\	-cem	4ff\	-bis
4G\	.	4B-\	no-	4r	.	4r	.
4F\	-cem	8A\L	-bis	8f\L	da	8cc\	do-
.	.	8c\J	.	8a\J	.	8ee\	-na
=32	=32	=32	=32	=32	=32	=32	=32
1C	pa-	2.c\	pa-	2a\	pa-	2ff\	pa-
.	.	.	.	2g\	.	2ee\	.
.	.	4B-\	.	.	.	.	.
=33	=33	=33	=33	=33	=33	=33	=33
1FF	-cem.	2A\	-cem.	2f\	-cem.	2ff\	-cem.
.	.	2r	.	2r	.	2r	.
==	==	==	==	==	==	==	==
*-	*-	*-	*-	*-	*-	*-	*-
!!!system-decoration: [(s1,s2,s3,s4)]
!!!ENC: Anastazja Marusiak
!!!END: 2023--11-13
!!!YEM: Copyright © 2023 by [Copyright Holder]
!!!ENC: Leszek Kubiak
!!!END: 2024-01-22
